icons/src/svg/send_inactive.svg

<svg width="32" height="32" viewBox="0 0 32 32" fill="none" xmlns="http://www.w3.org/2000/svg">
<path fill-rule="evenodd" clip-rule="evenodd" d="M23.6536 19.4116L26.8969 17.7906C28.3714 17.0537 28.3714 14.9495 26.8969 14.2126L10.0194 5.77734L14.4893 10.2472L26.0028 16.0016L22.1628 17.9208L23.6536 19.4116ZM12.7583 17.0016H8.84605L6.00432 25.9966L16.5051 20.7484L17.9959 22.2392L6.89845 27.7856C5.31831 28.5754 3.56508 27.0786 4.09723 25.3941L7.06454 16.0016L4.89685 9.14011L7.96293 12.2062L8.84605 15.0016H10.7583L12.7583 17.0016Z" fill="#0D0F13"/>
<path fill-rule="evenodd" clip-rule="evenodd" d="M2.00774 2.29289C2.39826 1.90237 3.03143 1.90237 3.42195 2.29289L29.422 28.2929C29.8125 28.6834 29.8125 29.3166 29.422 29.7071C29.0314 30.0976 28.3983 30.0976 28.0077 29.7071L2.00774 3.70711C1.61721 3.31658 1.61721 2.68342 2.00774 2.29289Z" fill="#0D0F13"/>
</svg>

<svg fill="none" xmlns="http://www.w3.org/2000/svg" viewBox="0 0 32 32">
  <path fill-rule="evenodd" clip-rule="evenodd" d="m23.654 19.411 3.243-1.62c1.474-.738 1.474-2.842 0-3.579L10.019 5.777l4.47 4.47L26.003 16l-3.84 1.92 1.49 1.49Zm-10.896-2.41H8.846l-2.842 8.995 10.501-5.248 1.49 1.49-11.097 5.547c-1.58.79-3.333-.707-2.8-2.391L7.064 16 4.897 9.14l3.066 3.066L8.846 15h1.912l2 2ZM2.008 2.293a1 1 0 0 1 1.414 0l26 26a1 1 0 0 1-1.414 1.414l-26-26a1 1 0 0 1 0-1.414Z" fill="#000"/>
</svg>
